src/assets/keys.svg

<svg fill="none" height="150" viewBox="0 0 150 150" width="150" xmlns="http://www.w3.org/2000/svg"><g fill="#3cc5d1"><path d="m128.046 21.9539c-14.188-14.16027-33.0131-21.9539-53.046-21.9539s-38.8584 7.79363-53.0461 21.9539c-14.16027 14.1877-21.9539 33.0132-21.9539 53.0461s7.79363 38.858 21.9539 53.046c14.1603 14.16 33.0132 21.954 53.0461 21.954s38.858-7.794 53.046-21.954c14.16-14.16 21.954-33.0131 21.954-53.046s-7.794-38.8584-21.954-53.0461zm-20.993 58.1504v39.5997l-13.694 12.211-13.6938-12.211v-10.017l3.7871-5.351-4.6104-7.2449 4.4457-5.2415-2.8814-4.2535c-3.0736 1.866-6.5313 3.0735-10.1812 3.4577l-18.3315 35.0992-17.8101 4.473-6.4764-17.179 4.6378-8.892 5.8178-2.991-.7135-8.5344 6.3666-2.5795-.7135-6.4764 2.9363-5.6257c-3.9242-7.1899-4.0614-15.944-.2195-23.2712.3019-.5763.6312-1.1525.9879-1.7014-1.4819-3.4852-2.2503-7.2722-2.2503-11.0867 0-15.7245 12.7882-28.5401 28.5401-28.5401 13.584 0 25 9.55 27.8543 22.3107 9.961 3.1833 17.206 12.5137 17.206 23.5181-.027 8.2876-4.199 15.9715-11.004 20.5269z"/><path d="m60.2085 42.9748c4.9122-1.5368 10.0988-1.5093 14.9012.0549 4.528-4.9671 11.0318-8.0955 18.2492-8.0955-3.0187-8.315-11.0044-14.2975-20.3623-14.2975-11.9374 0-21.6795 9.7146-21.6795 21.6795 0 1.7563.1921 3.4852.6038 5.1317 2.4149-2.0033 5.214-3.5126 8.2876-4.4731z"/><path d="m64.6816 62.3216c1.3996.5763 2.8541 1.0154 4.3359 1.2898-.1097-.6861-.192-1.3721-.2469-2.0582-.3842-.0823-.7684-.1372-1.1526-.1372-1.0703 0-2.0856.3019-2.9364.9056z"/><path d="m74.9177 75.9881c-1.0977.8507-2.3601 1.5093-3.7322 1.9484-1.18.3567-2.3875.5488-3.595.5488-1.8935 0-3.787-.4665-5.5159-1.3721-2.8265-1.4819-4.9122-3.9791-5.8726-7.0252-.9605-3.0461-.6587-6.2843.8232-9.1109 2.3875-4.5829 7.3546-6.9704 12.1844-6.3118.4117-1.9758 1.0428-3.8419 1.8661-5.6256-2.9089-.5763-5.9001-.4391-8.809.4665-4.528 1.427-8.2601 4.528-10.4555 8.7541-2.9912 5.7355-2.6345 12.6784.933 18.0845l1.1252 1.674-3.7871 7.2722 1.0428 9.55-6.4764 2.6345.6861 8.0955-7.9857 4.089-2.2229 4.226 3.2382 8.589 8.8913-2.25 18.7432-35.867 2.0307-.0549c4.2536-.1098 8.2602-1.7014 11.3337-4.4182-1.674-1.1251-3.1559-2.4424-4.4456-3.8968z"/><path d="m65.2304 71.0208c1.2075.6312 2.5796.7684 3.8969.3568.4939-.1647.9605-.3842 1.3721-.6587-2.4973-.2195-4.9671-.7683-7.2997-1.619.4665.8232 1.1526 1.4818 2.0307 1.9209z"/><path d="m111.169 59.6049c0-6.8881-3.952-12.8979-9.687-15.8617-.11 2.1405-.439 4.2261-.988 6.2294 2.936 2.1954 4.857 5.6806 4.857 9.6048 0 6.5862-5.3783 11.9649-11.9645 11.9649s-11.9649-5.3787-11.9649-11.9649c0-6.5861 5.3787-11.9648 11.9649-11.9648.2195 0 .4117 0 .6312.0274.4391-1.7289.6586-3.5126.6586-5.3513 0-.1646 0-.3018 0-.4665-.4116-.0274-.8507-.0549-1.2898-.0549-9.8244 0-17.8101 7.9858-17.8101 17.8101 0 6.4764 3.5126 12.4589 9.1932 15.5873l1.7563.9879v8.2053l5.3513 7.9857-4.5554 5.3513 4.3633 6.8601-5.1866 7.328v4.775l6.8331 6.092 6.8334-6.092v-40.4779l1.756-.988c5.708-3.1558 9.248-9.1108 9.248-15.5872z"/><path d="m89.9011 55.8452c-.3018.2744-.5762.6037-.8232.9605.3018-.3293.5763-.6312.8232-.9605z"/><path d="m91.2185 64.2151c.6586.3018 1.3721.4665 2.1405.4665 2.8266 0 5.1043-2.2777 5.1043-5.1043 0-1.0428-.3293-2.0307-.8507-2.8266-1.674 2.7992-3.8145 5.3239-6.3941 7.4644z"/></g><path d="m100.823 36.0868c-2.8538-12.7607-14.2424-22.3107-27.8538-22.3107-15.7245 0-28.5401 12.7882-28.5401 28.5401 0 3.8145.7684 7.6015 2.2503 11.0867-.3568.5489-.6861 1.1251-.9879 1.7014-3.842 7.3272-3.7048 16.0813.2195 23.2712l-2.9089 5.5982.7135 6.4764-6.3666 2.5796.7135 8.5343-5.8178 2.991-4.6378 8.892 6.4764 17.179 17.8101-4.473 18.3315-35.0992c3.6499-.3842 7.1076-1.5916 10.1812-3.4577l2.854 4.281-4.4457 5.2415 4.6103 7.2444-3.787 5.352v10.016l13.6937 12.212 13.6936-12.212v-39.6267c6.806-4.5554 10.977-12.2393 10.977-20.5269.028-10.9769-7.217-20.3348-17.179-23.4906zm-.631 40.0933v40.4779l-6.8331 6.092-6.8332-6.092v-4.775l5.1866-7.328-4.3633-6.8601 4.528-5.3238-5.3513-7.9857v-8.2053l-1.7563-.9879c-5.6806-3.1285-9.1932-9.1109-9.1932-15.5873 0-9.8244 7.9857-17.8101 17.8101-17.8101.4391 0 .8507.0274 1.2898.0549v.4665c0 1.8386-.2195 3.6224-.6586 5.3513-.2196 0-.4117-.0275-.6312-.0275-6.5862 0-11.9649 5.3787-11.9649 11.9649s5.3787 11.9649 11.9649 11.9649 11.9647-5.3787 11.9647-11.9649c0-3.9243-1.921-7.4369-4.857-9.6048.549-2.0033.905-4.089.988-6.2295 5.763 2.9638 9.687 8.9463 9.687 15.8617 0 6.4764-3.54 12.4589-9.193 15.5873zm-34.2206 8.2053-18.7432 35.8676-8.8913 2.25-3.2382-8.59 2.2228-4.226 7.9858-4.089-.6861-8.0952 6.4764-2.6345-1.0428-9.5499 3.787-7.2722-1.1251-1.674c-3.5675-5.4062-3.9243-12.3491-.933-18.0845 2.1954-4.2262 5.9275-7.3272 10.4555-8.7542 2.9089-.9056 5.9001-1.0702 8.809-.4665-.8507 1.7563-1.4819 3.6499-1.8661 5.6257-4.8573-.6586-9.7969 1.7289-12.1844 6.3118-1.4819 2.8265-1.7563 6.0647-.8233 9.1108.9331 3.0461 3.0461 5.5434 5.8727 7.0253 1.7289.9056 3.6224 1.3721 5.5159 1.3721 1.2075 0 2.415-.1921 3.595-.5489 1.3721-.439 2.6344-1.0977 3.7321-1.9484 1.2898 1.4545 2.7717 2.7717 4.4183 3.9243-3.101 2.7168-7.0802 4.3359-11.3337 4.4182zm2.7716-22.8321c.0549.6861.1373 1.3721.247 2.0582-1.4819-.2744-2.9363-.7135-4.3359-1.2898.8507-.6037 1.8661-.9056 2.9089-.9056.4117 0 .7959.0274 1.18.1372zm1.7289 9.1658c-.4116.2744-.8781.5214-1.3721.6586-1.2898.4116-2.6894.2744-3.8968-.3568-.8507-.4391-1.5642-1.1251-2.0308-1.9484 2.3601.8782 4.8025 1.427 7.2997 1.6466zm27.9912-11.1142c0 2.8266-2.2777 5.1043-5.1042 5.1043-.7684 0-1.4819-.1647-2.1406-.4665 2.5796-2.1406 4.7201-4.6653 6.3667-7.4644.5488.7959.8781 1.7563.8781 2.8266zm-9.3853-2.7991c.2196-.3568.5215-.6861.8233-.9605-.247.3293-.5214.6312-.8233.9605zm-16.1086-36.1691c9.3578 0 17.3436 5.955 20.3622 14.2975-7.2173 0-13.7486 3.1284-18.2492 8.0955-4.8024-1.5368-9.9615-1.5917-14.9012-.0549-3.0735.9605-5.8726 2.4973-8.2876 4.4731-.4116-1.674-.6037-3.3754-.6037-5.1317.0274-11.9649 9.742-21.6795 21.6795-21.6795z" fill="#000"/></svg>

<svg width="150" height="150" viewBox="0 0 150 150" fill="none" xmlns="http://www.w3.org/2000/svg">
<path d="M128.046 21.9539C113.858 7.79363 95.0329 0 75 0C54.9671 0 36.1416 7.79363 21.9539 21.9539C7.79363 36.1416 0 54.9671 0 75C0 95.0329 7.79363 113.858 21.9539 128.046C36.1142 142.206 54.9671 150 75 150C95.0329 150 113.858 142.206 128.046 128.046C142.206 113.886 150 95.0329 150 75C150 54.9671 142.206 36.1416 128.046 21.9539ZM107.053 80.1043V119.704L93.359 131.915L79.6652 119.704V109.687L83.4523 104.336L78.8419 97.0911L83.2876 91.8496L80.4062 87.5961C77.3326 89.4621 73.8749 90.6696 70.225 91.0538L51.8935 126.153L34.0834 130.626L27.607 113.447L32.2448 104.555L38.0626 101.564L37.3491 93.0296L43.7157 90.4501L43.0022 83.9737L45.9385 78.348C42.0143 71.1581 41.8771 62.404 45.719 55.0768C46.0209 54.5005 46.3502 53.9243 46.7069 53.3754C45.225 49.8902 44.4566 46.1032 44.4566 42.2887C44.4566 26.5642 57.2448 13.7486 72.9967 13.7486C86.5807 13.7486 97.9967 23.2986 100.851 36.0593C110.812 39.2426 118.057 48.573 118.057 59.5774C118.03 67.865 113.858 75.5489 107.053 80.1043Z" fill="#3CC5D1"/>
<path d="M60.2085 42.9748C65.1207 41.438 70.3073 41.4655 75.1097 43.0297C79.6377 38.0626 86.1415 34.9342 93.3589 34.9342C90.3402 26.6192 82.3545 20.6367 72.9966 20.6367C61.0592 20.6367 51.3171 30.3513 51.3171 42.3162C51.3171 44.0725 51.5092 45.8014 51.9209 47.4479C54.3358 45.4446 57.1349 43.9353 60.2085 42.9748Z" fill="#3CC5D1"/>
<path d="M64.6816 62.3216C66.0812 62.8979 67.5357 63.337 69.0175 63.6114C68.9078 62.9253 68.8255 62.2393 68.7706 61.5532C68.3864 61.4709 68.0022 61.416 67.618 61.416C66.5477 61.416 65.5324 61.7179 64.6816 62.3216Z" fill="#3CC5D1"/>
<path d="M74.9177 75.9881C73.82 76.8388 72.5576 77.4974 71.1855 77.9365C70.0055 78.2932 68.798 78.4853 67.5905 78.4853C65.697 78.4853 63.8035 78.0188 62.0746 77.1132C59.2481 75.6313 57.1624 73.1341 56.202 70.088C55.2415 67.0419 55.5433 63.8037 57.0252 60.9771C59.4127 56.3942 64.3798 54.0067 69.2096 54.6653C69.6213 52.6895 70.2524 50.8234 71.0757 49.0397C68.1668 48.4634 65.1756 48.6006 62.2667 49.5062C57.7387 50.9332 54.0066 54.0342 51.8112 58.2603C48.82 63.9958 49.1767 70.9387 52.7442 76.3448L53.8694 78.0188L50.0823 85.291L51.1251 94.841L44.6487 97.4755L45.3348 105.571L37.3491 109.66L35.1262 113.886L38.3644 122.475L47.2557 120.225L65.9989 84.358L68.0296 84.3031C72.2832 84.1933 76.2898 82.6017 79.3633 79.8849C77.6893 78.7598 76.2074 77.4425 74.9177 75.9881Z" fill="#3CC5D1"/>
<path d="M65.2304 71.0208C66.4379 71.652 67.81 71.7892 69.1273 71.3776C69.6212 71.2129 70.0878 70.9934 70.4994 70.7189C68.0021 70.4994 65.5323 69.9506 63.1997 69.0999C63.6662 69.9231 64.3523 70.5817 65.2304 71.0208Z" fill="#3CC5D1"/>
<path d="M111.169 59.6049C111.169 52.7168 107.217 46.707 101.482 43.7432C101.372 45.8837 101.043 47.9693 100.494 49.9726C103.43 52.168 105.351 55.6532 105.351 59.5774C105.351 66.1636 99.9727 71.5423 93.3865 71.5423C86.8003 71.5423 81.4216 66.1636 81.4216 59.5774C81.4216 52.9913 86.8003 47.6126 93.3865 47.6126C93.606 47.6126 93.7982 47.6126 94.0177 47.64C94.4568 45.9111 94.6763 44.1274 94.6763 42.2887C94.6763 42.1241 94.6763 41.9869 94.6763 41.8222C94.2647 41.7948 93.8256 41.7673 93.3865 41.7673C83.5621 41.7673 75.5764 49.7531 75.5764 59.5774C75.5764 66.0538 79.089 72.0363 84.7696 75.1647L86.5259 76.1526V84.3579L91.8772 92.3436L87.3218 97.6949L91.6851 104.555L86.4985 111.883V116.658L93.3316 122.75L100.165 116.658V76.1801L101.921 75.1921C107.629 72.0363 111.169 66.0813 111.169 59.6049Z" fill="#3CC5D1"/>
<path d="M89.9011 55.8452C89.5993 56.1196 89.3249 56.4489 89.0779 56.8057C89.3797 56.4764 89.6542 56.1745 89.9011 55.8452Z" fill="#3CC5D1"/>
<path d="M91.2185 64.2151C91.8771 64.5169 92.5906 64.6816 93.359 64.6816C96.1856 64.6816 98.4633 62.4039 98.4633 59.5773C98.4633 58.5345 98.134 57.5466 97.6126 56.7507C95.9386 59.5499 93.7981 62.0746 91.2185 64.2151Z" fill="#3CC5D1"/>
<path d="M100.823 36.0868C97.9692 23.3261 86.5806 13.7761 72.9692 13.7761C57.2447 13.7761 44.4291 26.5643 44.4291 42.3162C44.4291 46.1307 45.1975 49.9177 46.6794 53.4029C46.3226 53.9518 45.9933 54.528 45.6915 55.1043C41.8495 62.4315 41.9867 71.1856 45.911 78.3755L43.0021 83.9737L43.7156 90.4501L37.349 93.0297L38.0625 101.564L32.2447 104.555L27.6069 113.447L34.0833 130.626L51.8934 126.153L70.2249 91.0538C73.8748 90.6696 77.3325 89.4622 80.4061 87.5961L83.2601 91.8771L78.8144 97.1186L83.4247 104.363L79.6377 109.715V119.731L93.3314 131.943L107.025 119.731V80.1043C113.831 75.5489 118.002 67.865 118.002 59.5774C118.03 48.6005 110.785 39.2426 100.823 36.0868ZM100.192 76.1801V116.658L93.3589 122.75L86.5257 116.658V111.883L91.7123 104.555L87.349 97.6949L91.877 92.3711L86.5257 84.3854V76.1801L84.7694 75.1922C79.0888 72.0637 75.5762 66.0813 75.5762 59.6049C75.5762 49.7805 83.5619 41.7948 93.3863 41.7948C93.8254 41.7948 94.237 41.8222 94.6761 41.8497C94.6761 42.0143 94.6761 42.1515 94.6761 42.3162C94.6761 44.1548 94.4566 45.9386 94.0175 47.6675C93.7979 47.6675 93.6058 47.64 93.3863 47.64C86.8001 47.64 81.4214 53.0187 81.4214 59.6049C81.4214 66.1911 86.8001 71.5698 93.3863 71.5698C99.9725 71.5698 105.351 66.1911 105.351 59.6049C105.351 55.6806 103.43 52.168 100.494 50.0001C101.043 47.9968 101.399 45.9111 101.482 43.7706C107.245 46.7344 111.169 52.7169 111.169 59.6323C111.169 66.1087 107.629 72.0912 101.976 75.2196L100.192 76.1801ZM65.9714 84.3854L47.2282 120.253L38.3369 122.503L35.0987 113.913L37.3215 109.687L45.3073 105.598L44.6212 97.5028L51.0976 94.8683L50.0548 85.3184L53.8418 78.0462L52.7167 76.3722C49.1492 70.966 48.7924 64.0231 51.7837 58.2877C53.9791 54.0615 57.7112 50.9605 62.2392 49.5335C65.1481 48.6279 68.1393 48.4633 71.0482 49.067C70.1975 50.8233 69.5663 52.7169 69.1821 54.6927C64.3248 54.0341 59.3852 56.4216 56.9977 61.0045C55.5158 63.831 55.2414 67.0692 56.1744 70.1153C57.1075 73.1614 59.2205 75.6587 62.0471 77.1406C63.776 78.0462 65.6695 78.5127 67.563 78.5127C68.7705 78.5127 69.978 78.3206 71.158 77.9638C72.5301 77.5248 73.7924 76.8661 74.8901 76.0154C76.1799 77.4699 77.6618 78.7871 79.3084 79.9397C76.2074 82.6565 72.2282 84.2756 67.9747 84.3579L65.9714 84.3854ZM68.743 61.5533C68.7979 62.2394 68.8803 62.9254 68.99 63.6115C67.5081 63.3371 66.0537 62.898 64.6541 62.3217C65.5048 61.718 66.5202 61.4161 67.563 61.4161C67.9747 61.4161 68.3589 61.4435 68.743 61.5533ZM70.4719 70.7191C70.0603 70.9935 69.5938 71.2405 69.0998 71.3777C67.81 71.7893 66.4104 71.6521 65.203 71.0209C64.3523 70.5818 63.6388 69.8958 63.1722 69.0725C65.5323 69.9507 67.9747 70.4995 70.4719 70.7191ZM98.4631 59.6049C98.4631 62.4315 96.1854 64.7092 93.3589 64.7092C92.5905 64.7092 91.877 64.5445 91.2183 64.2427C93.7979 62.1021 95.9384 59.5774 97.585 56.7783C98.1338 57.5742 98.4631 58.5346 98.4631 59.6049ZM89.0778 56.8058C89.2974 56.449 89.5993 56.1197 89.9011 55.8453C89.6541 56.1746 89.3797 56.4765 89.0778 56.8058ZM72.9692 20.6367C82.327 20.6367 90.3128 26.5917 93.3314 34.9342C86.1141 34.9342 79.5828 38.0626 75.0822 43.0297C70.2798 41.4929 65.1207 41.438 60.181 42.9748C57.1075 43.9353 54.3084 45.4721 51.8934 47.4479C51.4818 45.7739 51.2897 44.0725 51.2897 42.3162C51.3171 30.3513 61.0317 20.6367 72.9692 20.6367Z" fill="black"/>
</svg>
